src/assets/icons/time,simple,sun-day-time.svg

<svg width="48" height="48" viewBox="0 0 48 48" fill="none" xmlns="http://www.w3.org/2000/svg">
<rect opacity="0.2" x="5" y="5" width="38" height="38" rx="4" fill="black"/>
<mask id="mask0_7:74956" style="mask-type:alpha" maskUnits="userSpaceOnUse" x="5" y="5" width="38" height="38">
<rect x="5" y="5" width="38" height="38" rx="4" fill="#CA9D46"/>
</mask>
<g mask="url(#mask0_7:74956)">
<path fill-rule="evenodd" clip-rule="evenodd" d="M23.2775 8.3229C23.663 7.89237 24.337 7.89237 24.7224 8.3229L28.3573 12.3832C28.5537 12.6026 28.8392 12.7208 29.1333 12.7046L34.5745 12.4038C35.1515 12.3719 35.6281 12.8485 35.5962 13.4255L35.2954 18.8667C35.2792 19.1608 35.3974 19.4463 35.6168 19.6427L39.6771 23.2775C40.1076 23.663 40.1076 24.337 39.6771 24.7224L35.6168 28.3573C35.3974 28.5537 35.2792 28.8392 35.2954 29.1333L35.5962 34.5745C35.6281 35.1515 35.1515 35.6281 34.5745 35.5962L29.1333 35.2954C28.8392 35.2792 28.5537 35.3974 28.3573 35.6168L24.7224 39.6771C24.337 40.1076 23.663 40.1076 23.2775 39.6771L19.6427 35.6168C19.4463 35.3974 19.1608 35.2792 18.8667 35.2954L13.4255 35.5962C12.8485 35.6281 12.3719 35.1515 12.4038 34.5745L12.7046 29.1333C12.7208 28.8392 12.6026 28.5537 12.3832 28.3573L8.3229 24.7224C7.89237 24.337 7.89237 23.663 8.3229 23.2775L12.3832 19.6427C12.6026 19.4463 12.7208 19.1608 12.7046 18.8667L12.4038 13.4255C12.3719 12.8485 12.8485 12.3719 13.4255 12.4038L18.8667 12.7046C19.1608 12.7208 19.4463 12.6026 19.6427 12.3832L23.2775 8.3229ZM24 31.7572C28.2842 31.7572 31.7572 28.2842 31.7572 24C31.7572 19.7158 28.2842 16.2428 24 16.2428C19.7158 16.2428 16.2428 19.7158 16.2428 24C16.2428 28.2842 19.7158 31.7572 24 31.7572Z" fill="black"/>
<circle opacity="0.2" cx="24" cy="24" r="8" fill="black"/>
</g>
</svg>

<svg xmlns="http://www.w3.org/2000/svg" width="48" height="48" fill="none" viewBox="0 0 48 48">
  <rect width="38" height="38" x="5" y="5" fill="#000" opacity=".2" rx="4"/>
  <mask id="a" width="38" height="38" x="5" y="5" maskUnits="userSpaceOnUse" style="mask-type:alpha">
    <rect width="38" height="38" x="5" y="5" fill="#CA9D46" rx="4"/>
  </mask>
  <g mask="url(#a)">
    <path fill="#000" fill-rule="evenodd" d="M23.277 8.323a.97.97 0 011.445 0l3.635 4.06a.97.97 0 00.776.322l5.442-.301a.97.97 0 011.021 1.021l-.3 5.442a.97.97 0 00.32.776l4.061 3.634a.97.97 0 010 1.445l-4.06 3.635a.97.97 0 00-.322.776l.301 5.442a.97.97 0 01-1.021 1.021l-5.442-.3a.97.97 0 00-.776.32l-3.635 4.061a.97.97 0 01-1.445 0l-3.634-4.06a.97.97 0 00-.776-.322l-5.442.301a.97.97 0 01-1.021-1.021l.3-5.442a.97.97 0 00-.32-.776l-4.061-3.635a.97.97 0 010-1.445l4.06-3.634a.97.97 0 00.322-.776l-.301-5.442a.97.97 0 011.021-1.021l5.442.3a.97.97 0 00.776-.32l3.634-4.061zM24 31.757a7.757 7.757 0 100-15.514 7.757 7.757 0 000 15.514z" clip-rule="evenodd"/>
    <circle cx="24" cy="24" r="8" fill="#000" opacity=".2"/>
  </g>
</svg>
